X:36
T:Coleraine Jig, The
R:jig
H:Also played in Am, #481
D:De Dannan
Z:id:hn-jig-36
M:6/8
K:Bm
FBB Bcd|cff f2e|dcB Bcd|cAF F2E|FBB Bcd|cff f2e|dcB ^ABc|1 dBB B2A:|2 dBB B2c||
|:~d3 dcB|Ace a2^a|bfe dcB|^ABc ~F3|~B3 cBc|def gfe|dcB ^ABc|1 dBB B2c:|2 dBB B2A||

